packages/icons/src/svg/sharing-default.svg

<svg xmlns="http://www.w3.org/2000/svg" viewBox="0 0 16 16">
  <path d="M6.46091836,7.92813038 C6.46091836,8.01113038 6.44291836,8.08813038 6.43691836,8.17013038 L10.5319184,10.2871304 C11.7389184,9.19113038 13.6059184,9.28113038 14.7019184,10.4881304 C14.7329184,10.5221304 14.7639184,10.5581304 14.7939184,10.5951304 C15.8889184,11.9081304 15.7579184,13.8491304 14.4969184,15.0041304 C13.2909184,16.1001304 11.4239184,16.0101304 10.3279184,14.8031304 C10.2959184,14.7681304 10.2649184,14.7331304 10.2349184,14.6961304 C9.75191836,14.1181304 9.48891836,13.3871304 9.49391836,12.6341304 C9.49391836,12.5511304 9.51191836,12.4731304 9.51791836,12.3941304 L5.42191836,10.2751304 C4.22291836,11.3871304 2.34891836,11.3171304 1.23591836,10.1171304 C1.20391836,10.0821304 1.17191836,10.0471304 1.14191836,10.0101304 C0.0309183558,8.70213038 0.142918356,6.75313038 1.39691836,5.58113038 C2.53191836,4.52813038 4.28791836,4.52813038 5.42191836,5.58113038 L9.51791836,3.46413038 C9.51191836,3.38313038 9.49391836,3.30513038 9.49391836,3.22213038 C9.53391836,1.53013038 10.9379184,0.191130377 12.6299184,0.230130377 C14.3219184,0.270130377 15.6619184,1.67513038 15.6219184,3.36613038 C15.5829184,5.01913038 14.2399184,6.34413038 12.5869184,6.36013038 C11.8269184,6.36613038 11.0919184,6.08313038 10.5319184,5.56913038 L6.43691836,7.68813038 C6.44291836,7.76813038 6.46091836,7.84513038 6.46091836,7.92813038"/>
</svg>

<svg xmlns="http://www.w3.org/2000/svg" viewBox="0 0 16 16">
	<path d="M6.46 7.928c0 .083-.017.16-.023.242l4.095 2.117a2.952 2.952 0 0 1 4.262.308 3.2 3.2 0 0 1-.297 4.41 2.95 2.95 0 0 1-4.262-.309 3.184 3.184 0 0 1-.741-2.062c0-.083.018-.16.024-.24l-4.096-2.119a2.962 2.962 0 0 1-4.28-.265 3.214 3.214 0 0 1 .255-4.429 2.96 2.96 0 0 1 4.025 0l4.096-2.117c-.006-.08-.024-.159-.024-.242a3.066 3.066 0 1 1 3.093 3.138 3.005 3.005 0 0 1-2.055-.79L6.437 7.687c.006.08.024.157.024.24"/>
</svg>
